X: 5113
T: Bridges And Hills
R: slip jig
M: 9/8
K: Amajor
E2A F2A cBc|B2B A2B cAF|E2A F2A cec|d2c B2A F3|
E2A F2A cBc|B2B A2B cde|f2c e2c B2A|d2c B2A F2D:|
E2e d2c B2A|dcd d2A FAF|E2e d2c B2c|dcd ABc d3|
E2e d2c B2A|dcd d2A FED|E2A F2A cBc|dcd def e3:|

